img/assets/sectionServices/value.svg

<?xml version="1.0" encoding="UTF-8"?>
<svg width="80px" height="80px" viewBox="0 0 80 80" version="1.1" xmlns="http://www.w3.org/2000/svg" xmlns:xlink="http://www.w3.org/1999/xlink">
    <!-- Generator: Sketch 61 (89581) - https://sketch.com -->
    <title>value</title>
    <desc>Created with Sketch.</desc>
    <g id="Inner-Pages" stroke="none" stroke-width="1" fill="none" fill-rule="evenodd">
        <g id="036--Services-2" transform="translate(-1310.000000, -722.000000)" fill="#888888" fill-rule="nonzero">
            <g id="section-SERVICES" transform="translate(400.000000, 618.000000)">
                <g id="service-3" transform="translate(780.000000, 0.000000)">
                    <g id="content" transform="translate(80.000000, 104.000000)">
                        <g id="value" transform="translate(50.000000, 0.000000)">
                            <path d="M70.8596112,47.2051836 L70.4497624,47.4263499 C68.7941253,45.4171922 65.9257019,44.6386177 63.7403024,45.7461771 C63.732527,45.7499784 63.7247516,45.7541253 63.717149,45.7580994 L62.7495464,46.2790497 C60.3853405,44.2771831 57.0195849,43.9730902 54.3348596,45.5187905 L49.1244924,48.3524838 L42.1912743,48.3524838 C40.6900185,48.3504832 39.2084191,48.0109968 37.8560691,47.3591361 L36.9022894,46.897797 C31.3654112,44.203772 24.7848699,44.8464551 19.8738661,48.5608639 C19.8512311,48.5781425 19.8291145,48.5954212 19.8080346,48.614946 L17.5053132,50.6648812 C16.6350829,51.4377881 15.6064465,52.011166 14.4914039,52.3448812 L13.1835853,48.0518359 C13.0505604,47.615581 12.6480509,47.3175037 12.1919654,47.3174946 L1.05537797,47.3174946 C0.758565632,47.3174904 0.475986587,47.4447049 0.27921388,47.6669167 C0.0824411716,47.8891285 -0.00965079404,48.1850229 0.0262634989,48.4796544 L3.73840173,78.9176674 C3.8018123,79.4378712 4.24346186,79.8289417 4.7675162,79.8289417 L21.4714471,79.8289417 C21.7999793,79.8289417 22.1090641,79.6732092 22.3045773,79.4091863 C22.5000904,79.1451635 22.5588889,78.8040965 22.463067,78.4898488 L20.2686825,71.2891577 L27.103067,66.9695032 C28.0175382,66.4635163 29.0903559,66.3246956 30.1034989,66.5812527 C30.1249244,66.5866091 30.1465227,66.5914471 30.1682937,66.5952484 L44.0704968,69.1552484 C47.848572,69.8312798 51.7438308,69.2812925 55.187041,67.5856587 C55.2310436,67.5639671 55.2734281,67.539137 55.3138661,67.5113607 L79.3594816,51.0012959 C79.8116603,50.6908127 79.9437395,50.0818396 79.6608207,49.6119222 C77.8431578,46.5846013 73.9648265,45.5240505 70.8596112,47.2051836 L70.8596112,47.2051836 Z M64.6882073,47.5901512 C65.9521382,46.9572354 67.5433261,47.4761123 68.5596544,48.4459611 L59.4413823,53.3651836 L58.9057451,53.6473434 C58.6170027,52.8275448 58.1950418,52.0609747 57.6568467,51.3784881 L64.6882073,47.5901512 Z M55.3382289,47.3335637 C55.3463499,47.3288985 55.3555076,47.324406 55.3627646,47.319568 C57.0260555,46.358149 59.0806213,46.3774786 60.7255292,47.3700216 L56.0895032,49.8660907 C55.205698,49.2210285 54.1972053,48.7671539 53.1282937,48.5333909 L55.3382289,47.3335637 Z M5.68466523,77.7555076 L2.22634989,49.3909287 L11.4235853,49.3909287 L20.0715335,77.7555076 L5.68466523,77.7555076 Z M54.2002592,65.7587905 C51.1729012,67.2324777 47.7559273,67.7072809 44.4414687,67.1148164 L30.5734773,64.5610367 C29.0480723,64.1844569 27.43651,64.4028534 26.0663499,65.1718359 C26.0502808,65.1806479 26.0342117,65.190324 26.0184881,65.2003456 L19.6400864,69.2326566 L15.0958099,54.329676 C16.4970586,53.9073766 17.7893874,53.1846466 18.8827646,52.2118359 L21.1530022,50.1902376 C25.4414359,46.966155 31.1740489,46.4146984 35.9984449,48.7621598 L36.9520518,49.2234989 C38.5860414,50.0110702 40.3761782,50.4212398 42.1900648,50.4236717 L51.4384449,50.4236717 C54.2418196,50.4276454 56.6481613,52.4201253 57.174946,55.1735637 L50.4717063,54.870324 C48.0348372,54.7608003 45.5930571,54.8736357 43.1766739,55.2074298 C42.6142166,55.2909169 42.2239725,55.8118768 42.3019719,56.3751213 C42.3799713,56.9383659 42.8971017,57.3336705 43.4610799,57.2611663 C45.7521641,56.9445083 48.0673693,56.8376287 50.3778834,56.9418575 L58.2666091,57.2986609 C58.2823326,57.2986609 58.2980562,57.2996976 58.3136069,57.2996976 C58.8861699,57.2996976 59.350324,56.8355436 59.350324,56.2629806 C59.350324,56.0952052 59.3432397,55.9289849 59.3330454,55.7636285 L60.4148596,55.1934341 L71.8444924,49.0291145 C73.6493676,48.0517618 75.8858601,48.4102358 77.2948596,49.9027214 L54.2002592,65.7587905 Z" id="Shape"></path>
                            <path d="M8.98038877,73.4666091 C8.98038877,74.7867459 9.77562,75.9768935 10.9952674,76.482088 C12.2149148,76.9872825 13.6187896,76.7080344 14.5522673,75.7745567 C15.485745,74.841079 15.7649931,73.4372042 15.2597986,72.2175568 C14.7546041,70.9979094 13.5644565,70.2026782 12.2443197,70.2026782 C10.4425294,70.2046779 8.98238849,71.6648188 8.98038877,73.4666091 Z M12.2443197,72.2761123 C12.9018129,72.2761123 13.4348164,72.8091159 13.4348164,73.4666091 C13.4348164,74.1241023 12.9018129,74.6571058 12.2443197,74.6571058 C11.5868264,74.6571058 11.0538229,74.1241023 11.0538229,73.4666091 C11.0549648,72.8096454 11.5873557,72.277409 12.2443197,72.2764579 L12.2443197,72.2761123 Z" id="Shape"></path>
                            <path d="M47.7964579,11.2838013 L47.7964579,7.867473 C47.7761602,3.53577887 44.2589123,0.0349736185 39.9271706,0.0349736185 C35.5954289,0.0349736185 32.078181,3.53577887 32.0578834,7.867473 L32.0578834,11.2838013 C32.078181,15.6154954 35.5954289,19.1163007 39.9271706,19.1163007 C44.2589123,19.1163007 47.7761602,15.6154954 47.7964579,11.2838013 Z M34.1313175,11.2838013 L34.1313175,7.867473 C34.1487275,4.67886302 36.7385131,2.10317918 39.9271706,2.10317918 C43.1158281,2.10317918 45.7056138,4.67886302 45.7230238,7.867473 L45.7230238,11.2838013 C45.7056138,14.4724113 43.1158281,17.0480951 39.9271706,17.0480951 C36.7385131,17.0480951 34.1487275,14.4724113 34.1313175,11.2838013 Z" id="Shape"></path>
                            <path d="M27.242851,40.5053996 L52.6116631,40.5053996 C53.1842261,40.5053996 53.6483801,40.0412455 53.6483801,39.4686825 L53.6483801,37.0890713 L71.0151188,37.0890713 C71.5876818,37.0890713 72.0518359,36.6249172 72.0518359,36.0523542 L72.0518359,29.3233693 C72.0494987,25.2256326 68.8655696,21.8339178 64.7761555,21.5728726 C64.2232397,21.5322678 63.9390065,21.8823326 63.7085097,22.1634557 C62.7790791,23.2990418 61.3776232,23.942188 59.9106149,23.9063587 C58.4436066,23.8705295 57.0752185,23.1597343 56.2023326,21.9801296 C56.0014704,21.7082336 55.68066,21.5513428 55.3427214,21.5597408 C53.9959984,21.5899825 52.6808776,21.9736562 51.5291577,22.672311 C49.992935,20.8859419 47.7988735,19.7976999 45.4470842,19.6556371 C44.9114471,19.6338661 44.6405184,19.9590497 44.3780562,20.2776674 C43.2875266,21.6104045 41.642944,22.365242 39.9214113,22.3231974 C38.1998785,22.2811528 36.5941051,21.4469325 35.5699352,20.0625486 C35.3693846,19.7902992 35.0483473,19.633362 34.710324,19.6423326 C32.4367752,19.6949149 30.2747548,20.6380261 28.6895896,22.2686825 C28.5586177,22.4025918 28.4343844,22.5413391 28.3132613,22.6821598 C27.2427589,22.0304329 26.0294902,21.6495554 24.7785745,21.572527 C24.2275594,21.5319222 23.9412527,21.881987 23.7109287,22.1631102 C22.7815325,23.2986925 21.3801029,23.9418402 19.9131193,23.9060107 C18.4461357,23.8701812 17.0777748,23.1593843 16.2049244,21.979784 C16.0037735,21.7082348 15.6831554,21.551438 15.3453132,21.5593952 C11.1341816,21.6665934 7.77537797,25.1108736 7.77537797,29.3233693 L7.77537797,36.0523542 C7.77537797,36.6249172 8.23953201,37.0890713 8.81209503,37.0890713 L26.2061339,37.0890713 L26.2061339,39.4686825 C26.2061339,40.0412455 26.6702879,40.5053996 27.242851,40.5053996 L27.242851,40.5053996 Z M54.9000432,23.6660043 C56.1929362,25.1334651 58.0527288,25.9764909 60.0084863,25.9816115 C61.9642437,25.9867322 63.8284253,25.1534567 65.1289849,23.6927862 C67.9149303,24.1130955 69.9757643,26.505898 69.9784017,29.3233693 L69.9784017,35.0156371 L53.6483801,35.0156371 L53.6483801,28.3649244 C53.6494778,26.9843352 53.3210091,25.6234266 52.6902808,24.3953348 C53.3677236,24.0002867 54.1205387,23.7518206 54.9000432,23.6660043 L54.9000432,23.6660043 Z M34.2634989,21.7472138 C35.7138401,23.4262505 37.8211684,24.3936391 40.0398675,24.3989096 C42.2585666,24.40418 44.3704671,23.4468141 45.8287689,21.7746868 C49.120338,22.2299245 51.5725671,25.0420252 51.5756371,28.3649244 L51.5756371,38.4319654 L28.279568,38.4319654 L28.279568,28.3649244 C28.300866,24.9581847 30.8760868,22.110213 34.2634989,21.7472138 L34.2634989,21.7472138 Z M9.8488121,35.0156371 L9.8488121,29.3233693 C9.86693952,26.4332376 12.033598,24.0085413 14.9034989,23.6666955 C16.1963831,25.1336926 18.0559166,25.9763537 20.0113207,25.9813421 C21.9667248,25.9863305 23.8305334,25.1531678 25.1308855,23.6927862 C25.8447019,23.7994982 26.5314985,24.0418418 27.1542117,24.4067387 C26.5291623,25.6324267 26.2042162,26.9890632 26.2061339,28.3649244 L26.2061339,35.0156371 L9.8488121,35.0156371 Z" id="Shape"></path>
                            <path d="M66.9294168,14.3721814 L66.9294168,11.3817711 C66.9294168,7.50628281 63.7877129,4.36457883 59.9122246,4.36457883 C56.0367364,4.36457883 52.8950324,7.50628281 52.8950324,11.3817711 L52.8950324,14.3721814 C52.8950324,18.2476697 56.0367364,21.3893737 59.9122246,21.3893737 C63.7877129,21.3893737 66.9294168,18.2476697 66.9294168,14.3721814 L66.9294168,14.3721814 Z M54.9684665,14.3721814 L54.9684665,11.3817711 C54.9684665,8.65140885 57.1818624,6.43801296 59.9122246,6.43801296 C62.6425868,6.43801296 64.8559827,8.65140885 64.8559827,11.3817711 L64.8559827,14.3721814 C64.8559827,17.1025436 62.6425868,19.3159395 59.9122246,19.3159395 C57.1818624,19.3159395 54.9684665,17.1025436 54.9684665,14.3721814 L54.9684665,14.3721814 Z" id="Shape"></path>
                            <path d="M26.9321814,14.3721814 L26.9321814,11.3817711 C26.9321814,8.8747697 25.5947122,6.5582049 23.4235854,5.30470421 C21.2524585,4.05120351 18.5775199,4.05120351 16.406393,5.30470421 C14.2352662,6.5582049 12.897797,8.8747697 12.897797,11.3817711 L12.897797,14.3721814 C12.897797,18.2476697 16.0395009,21.3893737 19.9149892,21.3893737 C23.7904775,21.3893737 26.9321814,18.2476697 26.9321814,14.3721814 L26.9321814,14.3721814 Z M14.9712311,14.3721814 L14.9712311,11.3817711 C14.9712311,8.65140885 17.184627,6.43801296 19.9149892,6.43801296 C22.6453514,6.43801296 24.8587473,8.65140885 24.8587473,11.3817711 L24.8587473,14.3721814 C24.8587473,16.1384161 23.9164724,17.7704843 22.3868683,18.6536016 C20.8572642,19.536719 18.9727142,19.536719 17.4431101,18.6536016 C15.913506,17.7704843 14.9712311,16.1384161 14.9712311,14.3721814 L14.9712311,14.3721814 Z" id="Shape"></path>
                        </g>
                    </g>
                </g>
            </g>
        </g>
    </g>
</svg>

<svg xmlns="http://www.w3.org/2000/svg" width="80" height="80" viewBox="0 0 80 80"><title>value</title><g fill="#888" fill-rule="nonzero"><path d="M70.86 47.205l-.41.221c-1.656-2.009-4.524-2.787-6.71-1.68l-.023.012-.967.521a7.348 7.348 0 0 0-8.415-.76l-5.21 2.833H42.19a10.015 10.015 0 0 1-4.335-.993l-.954-.461a16.362 16.362 0 0 0-17.028 1.663.89.89 0 0 0-.066.054l-2.303 2.05a7.987 7.987 0 0 1-3.014 1.68l-1.307-4.293a1.037 1.037 0 0 0-.992-.735H1.055A1.037 1.037 0 0 0 .026 48.48l3.712 30.438c.064.52.505.91 1.03.91H21.47a1.037 1.037 0 0 0 .992-1.338l-2.194-7.2 6.834-4.32a4.112 4.112 0 0 1 3-.389.92.92 0 0 0 .065.014l13.902 2.56a17.99 17.99 0 0 0 11.117-1.57c.044-.021.086-.046.127-.074l24.045-16.51c.453-.31.585-.92.302-1.39a6.6 6.6 0 0 0-8.801-2.406zm-6.172.385c1.264-.633 2.855-.114 3.872.856l-9.119 4.92-.535.281a7.905 7.905 0 0 0-1.25-2.269l7.032-3.788zm-9.35-.256l.025-.014a5.273 5.273 0 0 1 5.363.05l-4.636 2.496a7.878 7.878 0 0 0-2.962-1.333l2.21-1.2zM5.685 77.756L2.226 49.39h9.198l8.648 28.365H5.685zM54.2 65.759a15.903 15.903 0 0 1-9.759 1.356L30.573 64.56a6.182 6.182 0 0 0-4.555.64l-6.378 4.032-4.544-14.903a10.067 10.067 0 0 0 3.787-2.118l2.27-2.022a14.296 14.296 0 0 1 14.845-1.428l.954.461a12.101 12.101 0 0 0 5.238 1.2h9.248a5.849 5.849 0 0 1 5.737 4.75l-6.703-.303a40.14 40.14 0 0 0-7.295.337 1.037 1.037 0 0 0 .284 2.054 38.01 38.01 0 0 1 6.917-.32l7.889.358h.047c.572 0 1.036-.463 1.036-1.036 0-.168-.007-.334-.017-.5l1.082-.57 11.43-6.164a4.53 4.53 0 0 1 5.45.874L54.2 65.759z"/><path d="M8.98 73.467a3.264 3.264 0 106.528 0 3.264 3.264 0 00-6.528 0zm3.264-1.19a1.19 1.19 0 110 2.38 1.19 1.19 0 010-2.38zM47.796 11.284V7.867a7.87 7.87 0 00-15.738 0v3.417a7.87 7.87 0 0015.738 0zm-13.665 0V7.867a5.796 5.796 0 0111.592 0v3.417a5.796 5.796 0 01-11.592 0zM27.243 40.505h25.369c.572 0 1.036-.464 1.036-1.036v-2.38h17.367c.573 0 1.037-.464 1.037-1.037v-6.729a7.77 7.77 0 00-7.276-7.75c-.553-.04-.837.31-1.067.59a4.758 4.758 0 01-7.507-.183 1.037 1.037 0 00-.86-.42 7.686 7.686 0 00-3.813 1.112 8.715 8.715 0 00-6.082-3.016c-.536-.022-.806.303-1.069.622a5.582 5.582 0 01-8.808-.215c-.2-.273-.522-.43-.86-.42a8.676 8.676 0 00-6.397 3.04 7.708 7.708 0 00-3.534-1.11c-.551-.041-.838.309-1.068.59a4.757 4.757 0 01-7.506-.183 1.04 1.04 0 00-.86-.42 7.767 7.767 0 00-7.57 7.763v6.73c0 .572.465 1.036 1.037 1.036h17.394v2.38c0 .572.464 1.036 1.037 1.036zM54.9 23.666a6.832 6.832 0 0010.229.027 5.7 5.7 0 014.85 5.63v5.693h-16.33v-6.651a8.674 8.674 0 00-.959-3.97 5.604 5.604 0 012.21-.729zm-20.637-1.919a7.657 7.657 0 0011.566.028 6.66 6.66 0 015.747 6.59v10.067H28.28V28.365a6.698 6.698 0 015.983-6.618zM9.85 35.016v-5.693a5.733 5.733 0 015.054-5.656 6.832 6.832 0 0010.228.026c.714.106 1.4.349 2.023.714a8.686 8.686 0 00-.948 3.958v6.65H9.85z"/><path d="M66.93 14.372v-2.99a7.017 7.017 0 10-14.035 0v2.99a7.017 7.017 0 1014.034 0zm-11.962 0v-2.99a4.944 4.944 0 119.888 0v2.99a4.944 4.944 0 01-9.888 0zM26.932 14.372v-2.99a7.017 7.017 0 10-14.034 0v2.99a7.017 7.017 0 1014.034 0zm-11.96 0v-2.99a4.944 4.944 0 119.887 0v2.99a4.944 4.944 0 11-9.888 0z"/></g></svg>
